X:1
T:Dette's Mince Pies
C:Marcus Turner
O:New Zealand
P:ABAB
M:4/4
L:1/8
Q:1/4=200
R:Reel
K:D
P:A
|: "D" A,B,DE F2 ED | "Em"EF"D/F#"GA "G"Bc"A"dA | "D" A,B,DE (3FGF ED | "G"GB"A"Ac "D"dD D2 :|
P:B
"D" (f/g/f) ec dAFD | dAFD "A" GE E/E/E | "D" (f/g/f) ec dAFD | "G"GB"A"AG "D" FD D2 |
"D" (f/g/f) ec dAFD | dAFD "A" GE E/E/E | "Bm"bafe "F#m"dAFD | "G"GB"A"Ac "D"dD D2 |]